X: 1143
T: İltimâs Etmeye Yâre Varınız
C: Hacı Ârif Bey
O: Turkey
F: http://compmusic.upf.edu/node/140
N: muhayyer--sarki--aksak--iltimas_etmeye--haci_arif_bey
N: makam= muhayyer
N: form= sarki
N: usul= aksak = 9/8
M: 9/8
L: 1/16
K: C _2/4B ^3/4f  
Q: 1/4=144
%%MIDI tuningsystem comma53
g2a4g2 ac'_3/4ba a4 g2 | g3^2/4ff3ee3dd2 dedc  | \
w:  ARANAĞME  |   | 
d3e f2g2 aga_b agfe d2 | 
w:   | 
cd e=fed dccB BAA3g^3/4fg  | g2a4g2 ac'_3/4ba a4 g2 | 
w:   |  ARANAĞME  | 
g3^2/4ff3ee3dd2 dedc  | d3e f2g2 aga_b agfe d2 | 
w:   |   | 
cd e=fed dccB BAA3g^3/4fg  | a4 f2g2 a4 a4 ba | 
w:   |  *  İl ti mâs_ et  | 
a4a2 _1/4b2g2 f2e4fe  | d4 f2g2 a4 a2g2 f2 | \
w:  *  me ye  yâ *  re   |  *  va rı nız  ah   | 
e3da3/2c'/ baa4gf edcB  | 
w:  *  *  va *  rı *  nız  SAZ  | 
a4 f2g2 a4 a4 ba | a4a2 _1/4b2g2 f2e4fe  | \
w:  *  İl ti mâs_ et  |  *  me ye  yâ *  re   | 
d4 f2g2 a4 a2g2 f2 | 
w:  *  va rı nız  ah   | 
e3da3/2c'/ baa4a3/2b/ agfg  | a4 g2a2 a3g abc'b ag | 
w:  *  *  va *  rı *  nız  SAZ  |  *  Ku la  kul_ *  ol  | 
g=f fee2 edd3c{g}f2 e2d2  | dc2B (3dcBBA A4 a3/2b/ag fg | 
w:  *  *  *  *  dum_ a *  man  *  *  kur  |  *  *  *  ta *  *  rı *  nız  SAZ  | 
a4g2 a2a3gab c'bag  | g=ffe e2ed d3c {g}f2e2 d2 | 
w:  *  Ku la  kul_ *  ol  |  *  *  *  *  dum_ a *  man  *  *  kur  | 
dc2B(3dcB BAA4e3/2=f/ edcd  | e4 d2e2 e3d e2f2 g2 | 
w:  *  *  *  ta *  *  rı *  nız  SAZ  |  *  Et sin  â *  zâd   | 
fe d2a2 agfe d2e2 f2g2  | a2gf a3/2c'/ba a4 g3f fe | 
w:  *  *  *  be ni  *  yâr  *  *  yal  |  *  *  *  va *  rı *  nız  SAZ  | 
e4d2 e2e3de2 f2g2  | fed2 a2ag fed2 e2f2 g2 | \
w:  *  Et sin  â *  zâd   |  *  *  *  be ni  *  yâr  *  *  yal  | 
a2 gfa3/2c'/ baa4a3/2b/ agfg  | 
w:  *  *  *  va *  rı *  nız   SAZ  | 
a4 g2a2 a3g abc'b ag | g=f fee2 edd3c{g}f2 e2d2  | 
w:  *  Ku la  kul_ *  ol  |  *  *  *  *  dum_ a *  man  *  *  kur  | 
dc2B (3dcBBA A4 a3/2b/ag fg | a4g2 a2a3gab c'bag  | 
w:  *  *  *  ta *  *  rı *  nız  SAZ  |  *  Ku la  kul_ *  ol  | 
g=ffe e2ed d3c {g}f2e2 d2 | dc2B(3dcB BAA4|
w:  *  *  *  *  dum_ a *  man  *  *  kur  |  *  *  *  ta *  *  rı *  nız   | 


